X:1
T:Birkhall
T:Scots Reel
C:John Robertson
B:Donna Hinds, Grumbling Old Woman
N:From an Andy DeJarlis LP
Z:Nigel Gatherer
M:4/4
L:1/8
K:C
(3GAB | c2 ec G2 cG | EGCE  G2 EG | A2 cA G2 Bc | d2 de d3
G     | c2 ec G2 cG | EGCE  G2 cB | ABcd  ec d2 | c6       :|
ef    | g3  a g2 e2 | ce G2 e2 de | f3  g f2 d2 | Bd G2 d2
ef    | g3  a g2 e2 | ce G2 e2 de | fdBd  G2 AB | c2 e2 c2 :|
